X: 5698
T: Ca The Stirks Frae Oot The Corn
R: strathspey
M: 4/4
K: Amixolydian
A/A/A B3/2A/ B/d3/2 e2|d/g3/2 B/g3/2 A/G3/2 E2|
{BG}D3/2G/ B/G3/2 A3/2G/ B/G3/2|D/D/D E/G3/2 B/A3/2 A2:|
[a3/2e3/2]b/ a3/2g/ {b}a2 a3/2b/|g3/2a/ b/a3/2 g/e3/2 d3/2e/|
g3/2a/ g/e3/2 d/e3/2 g2|d/e/f/g/ d3/2g/ B/A3/2 A2:|

